X:227
T:Reel 227
M:4/4
K:Gmaj
L:1/8
dc|BGAF DGG2|FEFG ABcA|BGAF D2GF| (3Bcd AF GFGA|BGAG DGG2|FGAB cedc|BGAF GBAF|DEFG A2BA|B2AF G2AF|D2AD FGAc|BGAF GFED|EFGB AFDc|BGAF GFGB|AD (3DED ADAG|FGAB GABc|dfef edcB|
